X: 39834
T: Think Before You Think Before You Speak
R: reel
M: 4/4
K: Amixolydian
c2AG E3F|GD~D2 GABd|eAcA G2BG|1 EGAB cA~A2:|2 EGAB cA~AB||
=c2Gc acgc|B2~B2 BAGB|AE~E2 GABd|g2fa gedB|
=c2Gc acgc|B2~B2Bdgb|aegd edBA|GABd gfed||

